!!!OTL: Ganz heimelich (43), S. 142
!!!id: T0174
**kern
*clefG2
*k[]
*C:
{8g
=1
8cc
8cc
16cc
16cc
8dd
=2
16cc
16b
8a
8g}
=3
{8dd
=4
8dd
8ee
8dd
8cc
=5
8b
8a
8g}
=6
{8g
=7
8cc
8g
8cc
8g
=8
8cc
8g
8cc}
=9
{8g
=10
8dd
8g
8dd
8g
=11
8ee
8ee
8ee}
=12
{8dd
=13
4.ee
8ff
=14yy
4ee}
=15
{4dd
=16
*M4/4
2cc
2b
=17
4cc}
8r
==
*-
!!!minrhy: 16
!!!meters: 2/4 4/4 ]  ZZ[6
!!!cut: Ganz heimelich (43), S. 142
!!!reg: Luxemburg
!!!trd: Singendes Volk, Esch-Alzette 1937 posth.
!!!rhy1: X_  X_X_XXX_  XXX_X_
!!!rhy2: X_  X_X_X_X_  X_X_X_
!!!key: T0174  16  C 2/4 4/4 ]  ZZ[6
!!!mod: HEPTATONIK IONISCH]  AMBITUS[7b
!!!kad: 55+1+3+3+1
!!!akz: +1+1_+27_+1+1_+2+3_+3+3_+17+1_
!!!fot: 'a__b__aw_c__d__e__
!!!for: 'a__b__b__b__c__d__
!!!fok: '^__\__/__/__/__\__
!! PHRAS[AUFTAKTIG]
!!!fkt: Liebeslieder
!!!bem1: Holler, 1890, mitgeteilt hhh H. Godefroid,
!!!bem2: Godbringen, 1902
!! THILL, Mathias:
!! PR[10] 2K[5] 2G[33] 3K[0] 3G[0] 4A[3] 4Ü[0] 5A[0] 6K[0] 6G[0]
!! 7K[0] 7G[0] 8A[0] MEHR[0] SI[41] ABS[39] SR[38] SP[3]
!! ST[7] 2k[10] 2g[33] 3k[0] 3g[5] 4d[0] 4ü[0] 5d[0] 6k[0] 6g[0]
!! 7k[0] 7g[0] 8d[0] mehr[0] si[49] dm[-8] sr[44] sp[5]
!! 1F[68] 2F[29] 3F[2] 4F[0] LF[0] 2P[0] 3P[0] 4P[0] TRI[0] DF[3] AB[41]
!! TF[0] U3K[0] U3[0] U4[0] U4Ü[0] U5[5] U6K[0] U6[13] U7K[0] U7[18]
!! N1[35] N2K[0] N2[20] N3K[0] N3[10] N4[0] N4Ü[0] N5[0] N6K[0] N6[0]
!!!n7k: 0] N7[0] O1[0] O2K[0] O2[0] O3K[0] O3[0] HÖ[0
